src/images/footer-mails.svg

<svg width="24" height="24" viewBox="0 0 24 24" fill="none" xmlns="http://www.w3.org/2000/svg">
<path d="M20 4H8C6.89543 4 6 4.89543 6 6V15C6 16.1046 6.89543 17 8 17H20C21.1046 17 22 16.1046 22 15V6C22 4.89543 21.1046 4 20 4Z" stroke="white" stroke-width="1.5" stroke-linecap="round" stroke-linejoin="round"/>
<path d="M22 7L14.9 10.78C14.33 11.08 13.67 11.08 13.1 10.78L6 7" stroke="white" stroke-width="1.5" stroke-linecap="round" stroke-linejoin="round"/>
<path d="M2 8V19C2 20.1 2.9 21 4 21H18" stroke="white" stroke-width="1.5" stroke-linecap="round" stroke-linejoin="round"/>
</svg>

<svg width="24" height="24" fill="none" xmlns="http://www.w3.org/2000/svg"><path d="M20 4H8a2 2 0 0 0-2 2v9a2 2 0 0 0 2 2h12a2 2 0 0 0 2-2V6a2 2 0 0 0-2-2Z" stroke="#fff" stroke-width="1.5" stroke-linecap="round" stroke-linejoin="round"/><path d="m22 7-7.1 3.78c-.57.3-1.23.3-1.8 0L6 7M2 8v11c0 1.1.9 2 2 2h14" stroke="#fff" stroke-width="1.5" stroke-linecap="round" stroke-linejoin="round"/></svg>
